src/assets/svg/comments.svg

<svg xmlns="http://www.w3.org/2000/svg" width="60.801" height="60.801" viewBox="0 0 60.801 60.801"><path fill-rule="evenodd" clip-rule="evenodd" d="M19 34.194h26.605v-7.588h-30.41v7.588H19zm26.605-19h-30.41V22.8h30.41v-7.61zM60.8 7.606V3.804C60.8 1.704 59.095 0 56.998 0H3.804C1.704 0 0 1.705 0 3.804v41.802c0 2.097 1.705 3.78 3.804 3.78h28.498L49.392 60.8V49.387h7.605c2.097 0 3.804-1.684 3.804-3.78v-38zm-7.607 34.195h-11.39v5.696l-9.5-5.696H7.608V7.607h45.583v34.195zm0 0"/></svg>

<?xml version="1.0" encoding="utf-8"?>
<!-- Generator: Adobe Illustrator 14.0.0, SVG Export Plug-In . SVG Version: 6.00 Build 43363)  -->
<!DOCTYPE svg PUBLIC "-//W3C//DTD SVG 1.1//EN" "http://www.w3.org/Graphics/SVG/1.1/DTD/svg11.dtd">
<svg version="1.1" id="Layer_1" xmlns="http://www.w3.org/2000/svg" xmlns:xlink="http://www.w3.org/1999/xlink" x="0px" y="0px"
	 width="60.801px" height="60.801px" viewBox="0 0 60.801 60.801" enable-background="new 0 0 60.801 60.801" xml:space="preserve">
<g>
	<path fill-rule="evenodd" clip-rule="evenodd" d="M18.999,34.194h26.606v-7.588h-30.41v7.588H18.999z M45.605,15.193h-30.41v7.609
		h30.41V15.193z M60.801,7.607V3.804C60.801,1.705,59.094,0,56.997,0H3.804C1.705,0,0,1.705,0,3.804v41.802
		c0,2.097,1.705,3.78,3.804,3.78h28.498l17.089,11.415V49.386h7.606c2.097,0,3.804-1.684,3.804-3.78V7.607z M53.193,41.802H41.802
		v5.696l-9.5-5.696H7.609V7.607h45.584V41.802z M53.193,41.802"/>
</g>
</svg>
